X:1
T: Reel des Accord\'eonistes
C: Marcel Messervier
M: C|
Z: Transcribed to abc by Mary Lou Knack
R: reel
K: D
FG| "D"A2df "G"edcB| "D"ABAG F2EF| "A"GAGF EBBB| "D"ABAG FDFG|
    "D"A2df "G"edcB| "D"ABAG F2EF| "Em"GFEF "A"GABc| "D"dfec d2 :|
|:\
A2| "G"(3BcB GB d2cB| "D"(3ABA FA dAFA| "A"GECE A,ECE| "D"DEFG A2FA|
    "G"(3BcB GB d2cB| "D"(3ABA FA d2cd| "A"efed cBAG| FABc "D"d2 :|
|:\
d2| "G"dBGd BGdA| "D"FdAF d2cd| "A"e2d2 (3cdc (3BcB| "D"ABAG Fddd|
    "G"dBGd BGdA| "D"FdAF d2cd| "A"efed cBAG| FABc "D"d2 :|
